X:18
T:Nantwich Fair
R:slip jig
C:traditional
B:A Northern Lass
M:9/8
L:1/8
K:Gmin
|B2G^F2A D2c|B2G G2B AcA|B2G ^F2A  D3|D2F F2B AcA :|
|BAB cBc d3|_e2c c2F AcA|BAB cBc d3|c2F F2B AcA :|

